icons/evolvere-blue-folders-flat-vivid-dark-fallback/mimetypes/64/text-x-chdr.svg

<svg xmlns="http://www.w3.org/2000/svg" viewBox="0 0 64 64"><path d="m4 0h60v62h-60z" fill="#d88e15"/><path d="m60 2v31l-24.313 29h28.313v-25-31l-4-4" fill="#520" fill-opacity=".192"/><path d="m0 2h60v31l-26 31h-34z" fill="#e9b12f"/><path d="m34 64l26-31c-2.329 2.776-4.361 3-11 3h-12v15c0 6.644.044 9.37-3 13" fill="#da9517"/><g color="#000"><path d="m5 7v21l3 3c6 0 12 0 18 0l-2-2h-15v-20h10l-2-2c-4 0-8 0-12 0" fill="#664579"/><path fill="#f1f1f1" d="m51 2h4v19h-4z"/></g></svg>

<?xml version="1.0" encoding="UTF-8" standalone="no"?>
<!-- Created with Inkscape (http://www.inkscape.org/) -->

<svg
   xmlns:dc="http://purl.org/dc/elements/1.1/"
   xmlns:cc="http://creativecommons.org/ns#"
   xmlns:rdf="http://www.w3.org/1999/02/22-rdf-syntax-ns#"
   xmlns:svg="http://www.w3.org/2000/svg"
   xmlns="http://www.w3.org/2000/svg"
   xmlns:xlink="http://www.w3.org/1999/xlink"
   xmlns:sodipodi="http://sodipodi.sourceforge.net/DTD/sodipodi-0.dtd"
   xmlns:inkscape="http://www.inkscape.org/namespaces/inkscape"
   version="1.1"
   width="64"
   height="64"
   id="svg13094"
   inkscape:version="0.48.4 r9939"
   sodipodi:docname="text-x-chdr.svg">
  <sodipodi:namedview
     pagecolor="#ffffff"
     bordercolor="#666666"
     borderopacity="1"
     objecttolerance="10"
     gridtolerance="10"
     guidetolerance="10"
     inkscape:pageopacity="0"
     inkscape:pageshadow="2"
     inkscape:window-width="1920"
     inkscape:window-height="1022"
     id="namedview48"
     showgrid="true"
     fit-margin-top="0"
     fit-margin-left="0"
     fit-margin-right="0"
     fit-margin-bottom="0"
     inkscape:snap-bbox="true"
     inkscape:bbox-paths="true"
     inkscape:bbox-nodes="true"
     inkscape:snap-bbox-edge-midpoints="true"
     inkscape:snap-bbox-midpoints="true"
     inkscape:object-paths="true"
     inkscape:snap-intersection-paths="true"
     inkscape:object-nodes="true"
     inkscape:snap-smooth-nodes="true"
     inkscape:snap-midpoints="true"
     inkscape:snap-object-midpoints="true"
     inkscape:snap-center="true"
     inkscape:zoom="7.375"
     inkscape:cx="41.749141"
     inkscape:cy="29.894369"
     inkscape:window-x="-5"
     inkscape:window-y="23"
     inkscape:window-maximized="1"
     inkscape:current-layer="svg13094">
    <inkscape:grid
       type="xygrid"
       id="grid3025"
       empspacing="5"
       visible="true"
       enabled="true"
       snapvisiblegridlinesonly="true"
       originx="0px"
       originy="0px" />
  </sodipodi:namedview>
  <defs
     id="defs11">
    <linearGradient
       id="linearGradient3051-8-3-2">
      <stop
         offset="0"
         style="stop-color:#f6f6f6;stop-opacity:1"
         id="stop3053-9-5-2" />
      <stop
         offset="0.47965544"
         style="stop-color:#e1e1e1;stop-opacity:1"
         id="stop3059-4-7-4" />
      <stop
         offset="0.50227195"
         style="stop-color:#f6f6f6;stop-opacity:1"
         id="stop3061-7-0-9" />
      <stop
         offset="1"
         style="stop-color:#e1e1e1;stop-opacity:1"
         id="stop3055-4-2-5" />
    </linearGradient>
    <linearGradient
       gradientTransform="translate(-13.447434,-27.42052)"
       gradientUnits="userSpaceOnUse"
       xlink:href="#linearGradient3051-8-3-2"
       id="linearGradient3068-7-8-8"
       y2="90.420517"
       x2="31.447433"
       y1="30.420521"
       x1="31.447433" />
    <radialGradient
       gradientTransform="matrix(0.93962333,0.77477937,-1.7975241,2.1799696,88.13055,-93.36575)"
       gradientUnits="userSpaceOnUse"
       xlink:href="#radialGradient3996"
       id="radialGradient3373"
       r="14.16129"
       cy="47.141338"
       cx="48.30785" />
    <radialGradient
       gradientTransform="matrix(-2.0491578e-7,2.1591248,-0.51856169,-3.8905836e-8,81.12524,-70.945917)"
       gradientUnits="userSpaceOnUse"
       xlink:href="#radialGradient3996"
       id="radialGradient3822"
       fy="40.608799"
       fx="40.959122"
       r="14.16129"
       cy="40.919418"
       cx="48.24176" />
    <linearGradient
       gradientUnits="userSpaceOnUse"
       id="linearGradient4308"
       y2="4"
       x2="73"
       y1="52"
       x1="45">
      <stop
         offset="0"
         style="stop-color:#000000;stop-opacity:0.10677083"
         id="stop4304" />
      <stop
         offset="1"
         style="stop-color:#000000;stop-opacity:0"
         id="stop4306" />
    </linearGradient>
    <linearGradient
       gradientUnits="userSpaceOnUse"
       id="linearGradient4280"
       y2="36"
       x2="37"
       y1="46.124821"
       x1="48.992088">
      <stop
         offset="0"
         style="stop-color:#cb9543;stop-opacity:1"
         id="stop4293" />
      <stop
         offset="0.2098622"
         style="stop-color:#ae7d32;stop-opacity:1"
         id="stop4295" />
      <stop
         offset="1"
         style="stop-color:#c4903f;stop-opacity:1"
         id="stop4297" />
    </linearGradient>
    <radialGradient
       gradientTransform="matrix(0.93962333,0.77477937,-1.7975241,2.1799696,88.130548,-93.365748)"
       gradientUnits="userSpaceOnUse"
       id="radialGradient3996"
       r="14.16129"
       cy="47.141338"
       cx="48.30785">
      <stop
         offset="0"
         style="stop-color:#000000;stop-opacity:0.17850287"
         id="stop3954" />
      <stop
         offset="0.5"
         style="stop-color:#000000;stop-opacity:0.05310301"
         id="stop3958" />
      <stop
         offset="1"
         style="stop-color:#000000;stop-opacity:0"
         id="stop3956" />
    </radialGradient>
    <linearGradient
       gradientUnits="userSpaceOnUse"
       id="linearGradient3984"
       y2="2"
       x2="31"
       y1="64"
       x1="31">
      <stop
         offset="0"
         style="stop-color:#cf9b3a;stop-opacity:1"
         id="stop3099" />
      <stop
         offset="0.5"
         style="stop-color:#dca848;stop-opacity:1"
         id="stop3875" />
      <stop
         offset="0.51612902"
         style="stop-color:#cf9b3a;stop-opacity:1"
         id="stop3873" />
      <stop
         offset="1"
         style="stop-color:#dca848;stop-opacity:1"
         id="stop3101" />
    </linearGradient>
    <linearGradient
       id="linearGradient3051-8-3-2-9">
      <stop
         offset="0"
         style="stop-color:#f6f6f6;stop-opacity:1"
         id="stop3053-9-5-2-9" />
      <stop
         offset="0.47965544"
         style="stop-color:#e1e1e1;stop-opacity:1"
         id="stop3059-4-7-4-1" />
      <stop
         offset="0.50227195"
         style="stop-color:#f6f6f6;stop-opacity:1"
         id="stop3061-7-0-9-0" />
      <stop
         offset="1"
         style="stop-color:#e1e1e1;stop-opacity:1"
         id="stop3055-4-2-5-8" />
    </linearGradient>
    <linearGradient
       y2="90.420517"
       x2="31.447433"
       y1="30.420521"
       x1="31.447433"
       gradientTransform="translate(-17.447434,-31.42052)"
       gradientUnits="userSpaceOnUse"
       id="linearGradient3352"
       xlink:href="#linearGradient3051-8-3-2-9"
       inkscape:collect="always" />
  </defs>
  <metadata
     id="metadata13099">
    <rdf:RDF>
      <cc:Work
         rdf:about="">
        <dc:format>image/svg+xml</dc:format>
        <dc:type
           rdf:resource="http://purl.org/dc/dcmitype/StillImage" />
        <dc:title />
      </cc:Work>
    </rdf:RDF>
  </metadata>
  <path
     d="M 4,0 64,0 64,62 4,62 z"
     id="path3960"
     style="fill:#d88e15;fill-opacity:1;fill-rule:nonzero"
     inkscape:connector-curvature="0" />
  <path
     style="fill:#552200;fill-rule:nonzero;fill-opacity:0.19210526"
     d="M 60 2 L 60 33 L 35.6875 62 L 64 62 L 64 37 L 64 6 L 60 2 z "
     id="path3900" />
  <path
     d="M 0,2 60,2 60,33 34,64 0,64 z"
     id="path3982"
     style="fill:#e9b12f;fill-rule:nonzero;fill-opacity:1"
     inkscape:connector-curvature="0" />
  <path
     d="M 34,64 60,33 c -2.32857,2.776369 -4.36141,3 -11,3 H 37 v 15 c 0,6.64407 0.04437,9.37018 -3,13 z"
     id="path4278"
     style="fill:#da9517;fill-rule:nonzero;fill-opacity:1"
     inkscape:connector-curvature="0" />
  <path
     sodipodi:nodetypes="cccccccccc"
     inkscape:connector-curvature="0"
     id="path3375"
     d="m 5,7 0,21 3,3 c 6,0 12,0 18,0 L 24,29 9,29 9,9 19,9 17,7 C 13,7 9,7 5,7 z"
     style="color:#000000;fill:#664579;fill-opacity:1;fill-rule:nonzero;stroke:none;stroke-width:1;marker:none;visibility:visible;display:inline;overflow:visible;enable-background:accumulate" />
  <rect
     style="color:#000000;fill:#f1f1f1;fill-opacity:1;fill-rule:nonzero;stroke:none;stroke-width:1;marker:none;visibility:visible;display:inline;overflow:visible;enable-background:accumulate"
     id="rect4145"
     width="4"
     height="19"
     x="51"
     y="2" />
</svg>
